X: 22950
T: Larry's Lancer
R: polka
M: 2/4
K: Amajor
|:cA Ac|Bc ec|BF FB|BA AB|
cA Ac|Bc ec|BE FG|1 A2 AB:|2 A2 AF||
|:EC/E/ CB,|CE AG|GF FB|BA GF|
EC/E/ CB,|CE AG|FE FG|1 A2 AF:|2 A2 AB||

